X:16162
T:The Stran
Z:id:hn-jig-31
M:6/8
K:G
G2A|B2G AGA|B2c BAG|ABc d3|gdB ABA|G2G ABc|ded cBA|G2G G2:|
B|def gfe|d2d BcA|BAG A3|BcA G2:|
|:Bcd dBd|e2e ded|A2A ABc|dBB ABc|
dBd d2B|ABA B2B|A2G ABc|BAG G2:|
|:BGA BAB|cAB BAG|ABA GAB|cAF G2:|
|:d2c BAB|dBA BAB|cBA GBc|ded d2B|c2A A2:|